X: 1
T: TERENCE'S RAMBLE -- REEL
B: Ryan's Mammoth Collection of Fiddle Tunes
R: reel
M: 2/4
L: 1/16
Z: Contributed 20000424174113 by John Chambers jchambers:casc.com
K: F
vcF (3FFF cFAF | defg afef | cF (3FFF cFAc | dfcA AGG2 |
 cF (3FFF cFAF | defg afef | cF (3FFF cFAc | dfcA GFF2 :|
: g2ag f2c2 | dfcf dfcf | g2ag fdde | fdcA | AGG2 |
  g2ag f2c2 | dfcf dfcf | .a.f((3g/f/e/) fdde | fdcA GFF2 :|
